X: 42
M: C
L: 1/8
K: G
g2 | d3 c B2 (AB) | (AG) (FE) G3 F |
(AG) (FE) G3 A | B2 g2 (ag) (fg) | (e3 f) g2 |]
d2 | g2 b2 (ga) b2 | (ga) (bc')  b2 (ag) |
f2 (ga) d2 a2 | (fg) (ab) a2 (gf) |
g3 a b2 (ab) | c'b (ag) {g}f2 (ed) |
(ef) (ga) (ba) (gf) | (e3 f) g2 ][ g2 | d3 c
(AG) FE G3 A | B2 (ga) (ba) (gf) |
(e3 f) g2 |]
K:
K:
K:

